Yaru++/apps/scalable/jokosher.svg

<svg enable-background="new" height="256" viewBox="0 0 256 256" width="256" xmlns="http://www.w3.org/2000/svg" xmlns:xlink="http://www.w3.org/1999/xlink">
  <filter id="filter853" color-interpolation-filters="sRGB" height="1.022" width="1.027" x="-.01" y="-.01">
    <feGaussianBlur stdDeviation=".648"/>
  </filter>
  <filter id="filter879" color-interpolation-filters="sRGB" height="1.087" width="1.107" x="-.05" y="-.04">
    <feGaussianBlur stdDeviation="2.593"/>
  </filter>
  <g transform="matrix(1.5983608 0 0 1.5983608 23.35881 -244.49474624772)">
    <path d="m14.375128 161.22648c-3.99359 0-7.1739501 1.60808-7.1739501 5.58632v79.16395c0 31.78071 26.1195501 57.57378 58.3025611 57.57378 32.183015 0 58.302551-25.79307 58.302551-57.57378v-79.16395c0-3.97824-3.18033-5.90841-7.17394-5.90841 0 0-25.783139 7.90761-51.347441 7.90761-25.564301 0-50.909781-7.58552-50.909781-7.58552z" filter="url(#filter879)" opacity=".1"/>
    <path d="m14.375128 161.22648c-3.99359 0-7.1739501 1.60808-7.1739501 5.58632v79.16395c0 31.78071 26.1195501 57.57378 58.3025611 57.57378 32.183015 0 58.302551-25.79307 58.302551-57.57378v-79.16395c0-3.97824-3.18033-5.90841-7.17394-5.90841 0 0-25.783139 7.90761-51.347441 7.90761-25.564301 0-50.909781-7.58552-50.909781-7.58552z" filter="url(#filter853)" opacity=".1"/>
    <path d="m14.375128 161.22648c-3.99359 0-7.1739501 1.60808-7.1739501 5.58632v79.16395c0 31.78071 26.1195501 57.57378 58.3025611 57.57378 32.183015 0 58.302551-25.79307 58.302551-57.57378v-79.16395c0-3.97824-3.18033-5.90841-7.17394-5.90841 0 0-25.783139 7.90761-51.347441 7.90761-25.564301 0-50.909781-7.58552-50.909781-7.58552z" opacity=".1"/>
    <path d="m16.123625 162.46831c-3.876444 0-6.9634967 1.56091-6.9634967 5.42244v76.84163c0 30.84841 25.3533137 55.88482 56.5922127 55.88482 31.23891 0 56.592219-25.03641 56.592219-55.88482v-76.84163c0-3.86153-3.08704-5.73508-6.96349-5.73508 0 0-25.026779 7.67564-49.841139 7.67564-24.814359 0-49.416306-7.363-49.416306-7.363z" fill="#f34f17"/>
    <path d="m14.796436 167.29689-.510648 10.16625c11.540871 18.94885 26.30765 43.32742 41.891379 69.30032l-24.177311-75.40447c-5.254036-1.07654-12.046545-2.77288-17.20342-4.0621zm41.380731 79.46657 31.478384-73.36977c-5.88776.84206-12.4064 1.63791-19.03066 1.79535-3.51611 20.50386-7.781811 45.34434-12.447724 71.57442zm0 0 61.041733-19.62909v-17.35501c-17.561889 10.67901-38.667809 23.55974-61.041733 36.9841zm0 0 53.980043 23.10012c2.33482-3.94286 4.19268-8.16102 5.38604-12.68713-17.841859-3.0773-38.176919-6.64376-59.366083-10.41299zm0 0 15.439964 47.99555c4.08929-.46171 8.10836-1.40055 11.84928-2.75286-8.42024-13.89107-17.69861-29.25831-27.289244-45.24269zm0 0-17.474687 40.69448c3.011611 1.84559 6.191764 3.46112 9.575173 4.66792 2.464352-14.19265 5.083661-29.53267 7.899514-45.3624zm0 0-39.497584 12.6871c.976328 3.09502 2.181121 6.0471 3.710375 8.85705 11.288281-6.82919 23.354487-14.0845 35.787209-21.54415zm0 0-41.891379-17.95344v10.53269c13.224929 2.30016 27.326767 4.82993 41.891379 7.42075z" fill="#fda463" fill-rule="evenodd" opacity=".710983"/>
    <path d="m82.388121 186.14467 20.130999-4.23962v66.53041c-.00004 8.59502-2.649305 15.01816-7.947829 19.26949-5.2637 4.25126-13.24637 6.37694-23.94803 6.37694h-4.07849v-13.44704h3.1373c4.18306 0 7.33778-1.03203 9.46418-3.09607 2.16124-2.06403 3.24186-5.09848 3.24187-9.10332z" fill="#fff4c9"/>
    <path d="m115.38107 162.15567s-25.026744 7.6751-49.841104 7.6751-49.415858-7.36228-49.415858-7.36228c-3.87644 0-6.963922 1.56028-6.963922 5.42181v1.25129c0-3.86153 3.087482-5.42182 6.963922-5.42182 0 0 24.601498 7.36228 49.415858 7.36228s49.841104-7.6751 49.841104-7.6751c3.87645 0 6.96392 1.87311 6.96392 5.73464v-1.25129c0-3.86153-3.08747-5.73463-6.96392-5.73463z" fill="#fff" opacity=".3"/>
    <path d="m9.1596907 243.45706v1.25128c0 30.84841 25.3535053 55.88489 56.5924033 55.88489 31.238917 0 56.592406-25.03648 56.592406-55.88489v-1.25128c0 30.84841-25.353489 55.88489-56.592406 55.88489-31.238898 0-56.5924033-25.03648-56.5924033-55.88489z" opacity=".2"/>
    <g transform="matrix(.62564097 0 0 .62564097 -14.614229 152.96593)">
      <path d="m187.2207 46.255859-32.17578 6.775391v2l32.17578-6.775391zm-32.17578 106.339841c-.00001 6.40118-1.7272 11.24977-5.18164 14.54883-3.39875 3.29908-8.44091 4.94922-15.12695 4.94922h-5.01563v2h5.01563c6.68604 0 11.7282-1.65014 15.12695-4.94922 3.45444-3.29906 5.18163-8.14765 5.18164-14.54883z" fill="#fff" opacity=".3"/>
      <path d="m187.2207 150.5957c-.00006 13.73795-4.23417 24.00367-12.70312 30.79883-8.41329 6.79505-21.17223 10.19336-38.27735 10.19336h-6.51953v2h6.51953c17.10512 0 29.86406-3.39831 38.27735-10.19336 8.46895-6.79516 12.70306-17.06088 12.70312-30.79883z" opacity=".2"/>
    </g>
  </g>
</svg>

<svg xmlns="http://www.w3.org/2000/svg" xmlns:xlink="http://www.w3.org/1999/xlink" style="enable-background:new" width="256" height="256" version="1.0" viewBox="0 0 256 256">
 <title id="title4162">
  Adwaita Icon Template
 </title>
 <defs>
  <linearGradient id="linearGradient950">
   <stop style="stop-color:#9a9996" id="stop946" offset="0"/>
   <stop style="stop-color:#77767b" id="stop948" offset="1"/>
  </linearGradient>
  <linearGradient id="linearGradient1001" x1="1660.857" x2="1662.99" y1="806.297" y2="812.882" gradientTransform="matrix(1.8293937,-0.81599442,0.81599442,1.8293937,-3645.9624,100.02949)" gradientUnits="userSpaceOnUse" xlink:href="#linearGradient950"/>
  <clipPath id="clipPath5154" clipPathUnits="userSpaceOnUse">
   <circle style="fill:url(#radialGradient5158)" cx="128" cy="924.362" r="109.647"/>
  </clipPath>
  <clipPath id="clipPath977" clipPathUnits="userSpaceOnUse">
   <circle style="fill:url(#radialGradient5158)" cx="128" cy="924.362" r="109.647"/>
  </clipPath>
  <clipPath id="clipPath4688" clipPathUnits="userSpaceOnUse">
   <path style="fill:url(#radialGradient4692);stroke:#a7003f;stroke-linecap:round;stroke-linejoin:round" d="m 106.42383,889.60156 c -2.2448,-0.0524 -4.09304,1.75264 -4.09375,3.99805 v 32.64453 32.64453 c -4e-5,3.07923 3.33305,5.004 6,3.46485 l 28.26953,-16.32227 28.27148,-16.32227 c 2.66559,-1.54001 2.66559,-5.38772 0,-6.92773 l -28.27148,-16.32227 -28.26953,-16.32226 c -0.58054,-0.3353 -1.23603,-0.51932 -1.90625,-0.53516 z"/>
  </clipPath>
  <clipPath id="clipPath4564" clipPathUnits="userSpaceOnUse">
   <circle style="fill:url(#radialGradient4568)" cx="128" cy="924.362" r="109.647"/>
  </clipPath>
  <clipPath id="clipPath6215" clipPathUnits="userSpaceOnUse">
   <path style="fill:url(#radialGradient6219)" d="m 105.17325,806.18572 c -3.06859,0.56361 -6.11393,1.24721 -9.129005,2.04923 -3.838255,1.06506 -7.62084,2.32142 -11.333578,3.76438 -3.712189,1.44307 -7.34989,3.07087 -10.899472,4.87732 -3.549153,1.80656 -7.005749,3.78947 -10.35684,5.94129 -3.351877,2.15253 -6.593991,4.47137 -9.714191,6.94783 -3.119992,2.47544 -6.114241,5.10535 -8.971529,7.87988 -0.367219,0.38909 -0.731819,0.78065 -1.093777,1.17464 2.60205,17.85956 16.832359,40.03752 30.863064,55.74236 -4.76734,8.84435 -7.265993,18.73329 -7.272057,28.78068 0.02104,2.87431 0.246096,5.7435 0.673482,8.58593 -20.257302,-9.18513 -43.077023,-26.53494 -52.798465,-47.36396 -0.440667,1.15171 -0.863474,2.31018 -1.268271,3.47498 -1.176789,3.80495 -2.162562,7.66637 -2.953625,11.56979 -0.79154,3.90311 -1.3874065,7.84335 -1.7853678,11.80598 -0.39733,3.96334 -0.5961891,7.94407 -0.5958321,11.92728 -4.394e-4,2.81936 0.098928,5.63785 0.2979155,8.45018 0.282275,3.97319 0.763088,7.92978 1.4406374,11.85493 0.625626,3.51826 1.408798,7.00668 2.347153,10.45473 16.778133,6.68355 43.114514,5.45001 63.748015,1.14301 6.818545,11.02763 16.987182,19.58379 29.018153,24.41667 -18.071844,12.93645 -44.490188,24.02095 -67.37308,22.03245 1.384097,1.665 2.813203,3.2921 4.285735,4.8794 2.774977,2.8571 5.691103,5.5737 8.737453,8.1395 3.046107,2.5658 6.218619,4.9777 9.505651,7.2266 3.287242,2.2488 6.684891,4.3319 10.180217,6.2413 3.495379,1.9096 7.084075,3.6433 10.752641,5.1944 3.66896,1.5509 7.413193,2.9174 11.218668,4.0942 1.438565,0.3959 2.884421,0.7648 4.336807,1.1066 14.138748,-11.1844 26.206378,-34.5828 32.780368,-54.56406 12.95816,-0.38251 25.45395,-4.90132 35.65955,-12.89544 2.15922,22.12638 -1.46693,50.5581 -14.64692,69.3832 3.06859,-0.5636 6.11393,-1.2473 9.129,-2.0493 3.83826,-1.0651 7.62084,-2.3214 11.33358,-3.7644 3.71219,-1.4431 7.34989,-3.0709 10.89947,-4.8773 3.54915,-1.8066 7.00575,-3.7895 10.35684,-5.9413 3.35188,-2.1525 6.59399,-4.4714 9.71419,-6.9478 3.11999,-2.4754 6.11424,-5.1054 8.97153,-7.8799 0.36722,-0.3891 0.73182,-0.7806 1.09378,-1.1746 -2.60204,-17.85957 -16.83236,-40.03755 -30.86307,-55.74238 4.76735,-8.84435 7.266,-18.7333 7.27207,-28.78069 -0.021,-2.8743 -0.24611,-5.74349 -0.6735,-8.58592 20.25731,9.18513 43.07704,26.53494 52.79848,47.36396 0.44067,-1.15171 0.86347,-2.31018 1.26827,-3.47499 1.17679,-3.80495 2.16256,-7.66636 2.95362,-11.56978 0.79154,-3.90311 1.38741,-7.84335 1.78537,-11.80598 0.39733,-3.96334 0.59619,-7.94408 0.59583,-11.92729 4.4e-4,-2.81936 -0.0989,-5.63784 -0.29791,-8.45017 -0.28228,-3.97319 -0.76309,-7.92978 -1.44064,-11.85493 -0.62776,-3.53416 -1.41449,-7.03823 -2.35779,-10.50154 -20.56165,-7.32804 -45.89823,-4.79548 -63.74906,-1.11372 -6.81835,-11.01918 -16.98234,-19.56874 -29.00647,-24.39915 18.07184,-12.93645 44.49019,-24.02091 67.37307,-22.03241 -1.38409,-1.66502 -2.8132,-3.2921 -4.28573,-4.87944 -2.77498,-2.85712 -5.6911,-5.57368 -8.73745,-8.13949 -3.04611,-2.56581 -6.21862,-4.97769 -9.50565,-7.22659 -3.28724,-2.24885 -6.68489,-4.3319 -10.18022,-6.24135 -3.49538,-1.90963 -7.08407,-3.64325 -10.75264,-5.19438 -3.66896,-1.55092 -7.41319,-2.91736 -11.21867,-4.09421 -1.42662,-0.39262 -2.86041,-0.75869 -4.30063,-1.09804 -14.14688,11.18369 -26.2293,34.57475 -32.8107,54.55552 -12.96018,0.38127 -25.4582,4.90015 -35.665394,12.89544 -2.15922,-22.12637 1.466931,-50.55807 14.646924,-69.38315 z"/>
  </clipPath>
  <filter style="color-interpolation-filters:sRGB" id="filter853" width="1.027" height="1.022" x="-.01" y="-.01">
   <feGaussianBlur id="feGaussianBlur855" stdDeviation=".648"/>
  </filter>
  <filter style="color-interpolation-filters:sRGB" id="filter879" width="1.107" height="1.087" x="-.05" y="-.04">
   <feGaussianBlur id="feGaussianBlur881" stdDeviation="2.593"/>
  </filter>
 </defs>
 <g id="layer1" transform="matrix(1.5983608,0,0,1.5983608,23.35881,-248.83373)">
  <g id="layer9" transform="translate(0,2.7146456)">
   <path style="opacity:0.1;filter:url(#filter879)" d="m 14.375128,161.22648 c -3.99359,0 -7.1739501,1.60808 -7.1739501,5.58632 v 79.16395 c 0,31.78071 26.1195501,57.57378 58.3025611,57.57378 32.183015,0 58.302551,-25.79307 58.302551,-57.57378 V 166.8128 c 0,-3.97824 -3.18033,-5.90841 -7.17394,-5.90841 0,0 -25.783139,7.90761 -51.347441,7.90761 -25.564301,0 -50.909781,-7.58552 -50.909781,-7.58552 z"/>
   <path d="m 14.375128,161.22648 c -3.99359,0 -7.1739501,1.60808 -7.1739501,5.58632 v 79.16395 c 0,31.78071 26.1195501,57.57378 58.3025611,57.57378 32.183015,0 58.302551,-25.79307 58.302551,-57.57378 V 166.8128 c 0,-3.97824 -3.18033,-5.90841 -7.17394,-5.90841 0,0 -25.783139,7.90761 -51.347441,7.90761 -25.564301,0 -50.909781,-7.58552 -50.909781,-7.58552 z" style="opacity:0.1;filter:url(#filter853)"/>
   <path style="opacity:0.1" d="m 14.375128,161.22648 c -3.99359,0 -7.1739501,1.60808 -7.1739501,5.58632 v 79.16395 c 0,31.78071 26.1195501,57.57378 58.3025611,57.57378 32.183015,0 58.302551,-25.79307 58.302551,-57.57378 V 166.8128 c 0,-3.97824 -3.18033,-5.90841 -7.17394,-5.90841 0,0 -25.783139,7.90761 -51.347441,7.90761 -25.564301,0 -50.909781,-7.58552 -50.909781,-7.58552 z"/>
   <path style="fill:#f34f17" d="m 16.123625,162.46831 c -3.876444,0 -6.9634967,1.56091 -6.9634967,5.42244 v 76.84163 c 0,30.84841 25.3533137,55.88482 56.5922127,55.88482 31.23891,0 56.592219,-25.03641 56.592219,-55.88482 v -76.84163 c 0,-3.86153 -3.08704,-5.73508 -6.96349,-5.73508 0,0 -25.026779,7.67564 -49.841139,7.67564 -24.814359,0 -49.416306,-7.363 -49.416306,-7.363 z"/>
   <path style="opacity:0.71098268;fill:#fda463;fill-rule:evenodd" d="m 14.796436,167.29689 -0.510648,10.16625 c 11.540871,18.94885 26.30765,43.32742 41.891379,69.30032 L 31.999856,171.35899 c -5.254036,-1.07654 -12.046545,-2.77288 -17.20342,-4.0621 z m 41.380731,79.46657 31.478384,-73.36977 c -5.88776,0.84206 -12.4064,1.63791 -19.03066,1.79535 -3.51611,20.50386 -7.781811,45.34434 -12.447724,71.57442 z m 0,0 61.041733,-19.62909 v -17.35501 c -17.561889,10.67901 -38.667809,23.55974 -61.041733,36.9841 z m 0,0 53.980043,23.10012 c 2.33482,-3.94286 4.19268,-8.16102 5.38604,-12.68713 -17.841859,-3.0773 -38.176919,-6.64376 -59.366083,-10.41299 z m 0,0 15.439964,47.99555 c 4.08929,-0.46171 8.10836,-1.40055 11.84928,-2.75286 -8.42024,-13.89107 -17.69861,-29.25831 -27.289244,-45.24269 z m 0,0 -17.474687,40.69448 c 3.011611,1.84559 6.191764,3.46112 9.575173,4.66792 2.464352,-14.19265 5.083661,-29.53267 7.899514,-45.3624 z m 0,0 -39.497584,12.6871 c 0.976328,3.09502 2.181121,6.0471 3.710375,8.85705 11.288281,-6.82919 23.354487,-14.0845 35.787209,-21.54415 z m 0,0 -41.891379,-17.95344 v 10.53269 c 13.224929,2.30016 27.326767,4.82993 41.891379,7.42075 z"/>
   <path style="fill:#fff4c9" d="m 82.388121,186.14467 20.130999,-4.23962 v 66.53041 c -4e-5,8.59502 -2.649305,15.01816 -7.947829,19.26949 -5.2637,4.25126 -13.24637,6.37694 -23.94803,6.37694 h -4.07849 v -13.44704 h 3.1373 c 4.18306,0 7.33778,-1.03203 9.46418,-3.09607 2.16124,-2.06403 3.24186,-5.09848 3.24187,-9.10332 v -62.29079"/>
   <path style="fill:#ffffff;opacity:0.3" d="m 115.38107,162.15567 c 0,0 -25.026744,7.6751 -49.841104,7.6751 -24.81436,0 -49.415858,-7.36228 -49.415858,-7.36228 -3.87644,0 -6.963922,1.56028 -6.963922,5.42181 v 1.25129 c 0,-3.86153 3.087482,-5.42182 6.963922,-5.42182 0,0 24.601498,7.36228 49.415858,7.36228 24.81436,0 49.841104,-7.6751 49.841104,-7.6751 3.87645,0 6.96392,1.87311 6.96392,5.73464 v -1.25129 c 0,-3.86153 -3.08747,-5.73463 -6.96392,-5.73463 z"/>
   <path style="opacity:0.2" d="m 9.1596907,243.45706 v 1.25128 c 0,30.84841 25.3535053,55.88489 56.5924033,55.88489 31.238917,0 56.592406,-25.03648 56.592406,-55.88489 v -1.25128 c 0,30.84841 -25.353489,55.88489 -56.592406,55.88489 -31.238898,0 -56.5924033,-25.03648 -56.5924033,-55.88489 z"/>
   <path style="fill:#ffffff;opacity:0.3" d="M 187.2207 46.255859 L 155.04492 53.03125 L 155.04492 55.03125 L 187.2207 48.255859 L 187.2207 46.255859 z M 155.04492 152.5957 C 155.04491 158.99688 153.31772 163.84547 149.86328 167.14453 C 146.46453 170.44361 141.42237 172.09375 134.73633 172.09375 L 129.7207 172.09375 L 129.7207 174.09375 L 134.73633 174.09375 C 141.42237 174.09375 146.46453 172.44361 149.86328 169.14453 C 153.31772 165.84547 155.04491 160.99688 155.04492 154.5957 L 155.04492 152.5957 z" transform="matrix(0.62564097,0,0,0.62564097,-14.614229,152.96593)"/>
   <path style="opacity:0.2" d="M 187.2207 150.5957 C 187.22064 164.33365 182.98653 174.59937 174.51758 181.39453 C 166.10429 188.18958 153.34535 191.58789 136.24023 191.58789 L 129.7207 191.58789 L 129.7207 193.58789 L 136.24023 193.58789 C 153.34535 193.58789 166.10429 190.18958 174.51758 183.39453 C 182.98653 176.59937 187.22064 166.33365 187.2207 152.5957 L 187.2207 150.5957 z" transform="matrix(0.62564097,0,0,0.62564097,-14.614229,152.96593)"/>
  </g>
 </g>
</svg>
